X:25
T:Lady Lucy Ramsays Reel Dix.25
M:C
L:1/8
Q:1/4=120
S:Anon. MS dated 1811, from Dixon collection, Holton le Moor, Lincs.
R:reel
O:England;Lincolnshire;Holton le Moor
Z:vmp.R.Greig 2010 <http://www.village-music-project.org.uk>
K:C
f|egg>a g>ec>a|g>ec>a edd>f|egg>a g>ag>e|f>dB>g ecc:|!
|:f|G>cE>c “tr”d>cd>e|c<c {cd}e>d cAAc|G<cE<c “tr”d>cde|cG A/B/c/G/ ECC>c|!
G>cE>c “tr”d>cde|c<c {cd}e>d cAAc|GcEc FdEc|Daa>f ecc:|

